.icons/oomox-ad/32x32/apps/stepmania-ssc.svg

<svg xmlns="http://www.w3.org/2000/svg" width="32" height="32" version="1.1">
 <path style="opacity:0.2" d="m 7.0002171,2.9999995 c -2.7699738,0 -4.9999529,2.2299791 -4.9999529,4.9999528 0,2.7699737 2.2299791,4.9999527 4.9999529,4.9999527 H 12.929849 L 3.4690004,22.4588 c -1.9586672,1.958667 -1.9586672,5.113532 0,7.072199 1.9586672,1.958668 5.1135317,1.958668 7.0721996,0 l 9.458894,-9.460849 v 5.929633 c 0,2.769974 2.229979,4.999953 4.999953,4.999953 C 27.770021,30.999736 30,28.769757 30,25.999783 V 7.9999523 C 30,5.2299786 27.770021,2.9999995 25.000047,2.9999995 Z"/>
 <path style="fill:#e7b212" d="m 7.0002171,2.0002735 c -2.7699738,0 -4.9999528,2.2299791 -4.9999528,4.9999528 0,2.7699738 2.229979,4.9999527 4.9999528,4.9999527 h 5.9296319 l -9.4608486,9.458895 c -1.9586672,1.958667 -1.9586672,5.113532 0,7.072199 1.9586672,1.958668 5.1135317,1.958668 7.0721996,0 l 9.458894,-9.460849 v 5.929632 c 0,2.769974 2.229979,4.999953 4.999953,4.999953 C 27.770021,30.000009 30,27.77003 30,25.000056 V 7.0002263 C 30,4.2302526 27.770021,2.0002735 25.000047,2.0002735 Z"/>
 <path style="opacity:0.2;fill:#ffffff" d="m 7.0002171,2.0002735 c -2.7699738,0 -4.9999528,2.2299791 -4.9999528,4.9999528 0,0.1691684 0.00914,0.33524 0.02539,0.4999953 C 2.2746171,4.9663591 4.3987701,3.0002641 7.0002171,3.0002641 H 25.000047 C 27.770021,3.0002641 30,5.2302432 30,8.0002169 V 7.0002263 C 30,4.2302526 27.770021,2.0002735 25.000047,2.0002735 Z M 11.929859,13.00017 3.4690004,21.459074 C 2.3614735,22.566601 1.9041183,24.054265 2.0490919,25.494193 2.1606971,24.387958 2.6181205,23.309944 3.4690004,22.459064 L 12.929849,13.00017 Z"/>
</svg>

<svg xmlns="http://www.w3.org/2000/svg" width="32" height="32" version="1.1" viewBox="0 0 24 24">
 <path style="opacity:0.2" d="m 5.2499998,2.2498015 c -2.0774999,0 -3.7499999,1.6725 -3.7499999,3.7499998 0,2.0774999 1.6725,3.7499999 3.7499999,3.7499999 H 9.6972656 L 2.6015624,16.844039 c -1.4690142,1.469014 -1.4690142,3.835185 0,5.304199 1.4690142,1.469015 3.8351848,1.469015 5.3041993,0 l 7.0942373,-7.095703 v 4.447266 c 0,2.0775 1.6725,3.75 3.75,3.75 2.0775,0 3.75,-1.6725 3.75,-3.75 V 5.9998013 c 0,-2.0774998 -1.6725,-3.7499998 -3.75,-3.7499998 z"/>
 <path style="fill:#e7b212" transform="scale(0.74999997)" d="M 7 2 C 4.2300001 2 2 4.2300001 2 7 C 2 9.7699999 4.2300001 12 7 12 L 12.929688 12 L 3.46875 21.458984 C 1.5100643 23.41767 1.5100643 26.572564 3.46875 28.53125 C 5.4274357 30.489936 8.5823299 30.489936 10.541016 28.53125 L 20 19.070312 L 20 25 C 20 27.77 22.23 30 25 30 C 27.77 30 30 27.77 30 25 L 30 7 C 30 4.2300001 27.77 2 25 2 L 7 2 z"/>
 <path style="opacity:0.2;fill:#ffffff" transform="scale(0.74999997)" d="M 7 2 C 4.2300001 2 2 4.2300001 2 7 C 2 7.16917 2.0091406 7.3352431 2.0253906 7.5 C 2.2743554 4.9661136 4.3985284 3 7 3 L 25 3 C 27.77 3 30 5.2300002 30 8 L 30 7 C 30 4.2300001 27.77 2 25 2 L 7 2 z M 11.929688 13 L 3.46875 21.458984 C 2.3612126 22.566522 1.9038531 24.0542 2.0488281 25.494141 C 2.1604343 24.387896 2.617862 23.309872 3.46875 22.458984 L 12.929688 13 L 11.929688 13 z"/>
</svg>
